src/assets/svg/icons/react-icon.svg

<svg width="80px" height="80px" viewBox="0 0 100 101" fill="none" xmlns="http://www.w3.org/2000/svg">
<path d="M50.1045 59.4105C54.9736 59.4105 58.9207 55.4634 58.9207 50.5943C58.9207 45.7252 54.9736 41.7781 50.1045 41.7781C45.2354 41.7781 41.2883 45.7252 41.2883 50.5943C41.2883 55.4634 45.2354 59.4105 50.1045 59.4105Z" fill="#61DAFB"/>
<path d="M50.1045 68.6568C76.2312 68.6568 97.4111 60.5699 97.4111 50.5943C97.4111 40.6186 76.2312 32.5317 50.1045 32.5317C23.9777 32.5317 2.79785 40.6186 2.79785 50.5943C2.79785 60.5699 23.9777 68.6568 50.1045 68.6568Z" stroke="#61DAFB" stroke-width="5"/>
<path d="M34.4618 59.6255C47.5251 82.2519 65.1185 96.5508 73.7577 91.563C82.3969 86.5751 78.8104 64.1894 65.747 41.563C52.6836 18.9366 35.0903 4.63767 26.4511 9.6255C17.8119 14.6133 21.3984 36.9991 34.4618 59.6255Z" stroke="#61DAFB" stroke-width="5"/>
<path d="M34.4619 41.5629C21.3985 64.1894 17.812 86.5751 26.4512 91.5629C35.0903 96.5508 52.6837 82.2519 65.7471 59.6255C78.8104 36.9991 82.397 14.6133 73.7578 9.62547C65.1186 4.63764 47.5252 18.9365 34.4619 41.5629Z" stroke="#61DAFB" stroke-width="5"/>
</svg>

<svg xmlns="http://www.w3.org/2000/svg" width="80" height="80" viewBox="0 0 100 101" fill="none" xmlns:v="https://vecta.io/nano"><path d="M50.105 59.411a8.82 8.82 0 0 0 8.816-8.816 8.82 8.82 0 0 0-8.816-8.816 8.82 8.82 0 0 0-8.816 8.816 8.82 8.82 0 0 0 8.816 8.816z" fill="#61dafb"/><g stroke="#61dafb" stroke-width="5"><path d="M50.105 68.657c26.127 0 47.307-8.087 47.307-18.063s-21.18-18.063-47.307-18.063S2.798 40.619 2.798 50.594s21.18 18.063 47.307 18.063z"/><path d="M34.462 59.626c13.063 22.626 30.657 36.925 39.296 31.938s5.053-27.374-8.011-50S35.09 4.638 26.451 9.626s-5.053 27.374 8.011 50z"/><path d="M34.462 41.563c-13.063 22.627-16.65 45.012-8.011 50s26.233-9.311 39.296-31.937 16.65-45.012 8.011-50-26.233 9.311-39.296 31.937z"/></g></svg>
